X: 17605
T: Hogmanay, The
R: jig
M: 6/8
K: Gmajor
|:G/A/|B2 B BcB|A2 G G2 A|B2 B BAG|F2 E E2 D/E/|
F2 F FGF|E2 D D2 E|1 DFA d^cd|c2 B B2:|2 DFA cBA|G3 G2||
|:A|B2 B A2 A|G2 G F2 F|E2 E EDE|F2 E DE/F/A|c2 c B2 B|
[1 A2 A G2 G|FGF EFE|D3 DB,/C/D:|2 ABA GFE|DFA cBA|G3- G2||

